svg/fluentui-system-icons/ic_fluent_thinking_20_regular.svg

<svg width="20" height="20" viewBox="0 0 20 20" fill="none" xmlns="http://www.w3.org/2000/svg">
<path d="M10 2C9.03769 2 8.28027 2.24203 7.69469 2.64171C7.11215 3.03932 6.73184 3.57085 6.48441 4.10106C6.15447 4.80806 6.04925 5.53892 6.0157 6.01727C5.3685 6.06508 4.7055 6.22041 4.16015 6.58397C3.44155 7.06304 3 7.85435 3 9C3 10.1457 3.44155 10.937 4.16015 11.416C4.84297 11.8712 5.71024 12 6.5 12H13.5C14.2813 12 15.1507 11.8884 15.8361 11.4402C16.5617 10.9659 17 10.1699 17 9C17 7.85435 16.5585 7.06304 15.8399 6.58397C15.2945 6.22041 14.6315 6.06508 13.9843 6.01727C13.9508 5.53892 13.8455 4.80806 13.5156 4.10106C13.2682 3.57085 12.8878 3.03932 12.3053 2.64171C11.7197 2.24203 10.9623 2 10 2ZM7 6.5C7 6.25687 7.00325 5.35396 7.39059 4.52394C7.58066 4.11665 7.8566 3.74193 8.25843 3.46766C8.65723 3.19547 9.21231 3 10 3C10.7877 3 11.3428 3.19547 11.7416 3.46766C12.1434 3.74193 12.4193 4.11665 12.6094 4.52394C12.9967 5.35396 13 6.25687 13 6.5C13 6.77614 13.2239 7 13.5 7C14.2102 7 14.843 7.12124 15.2851 7.41603C15.6915 7.68696 16 8.14565 16 9C16 9.88799 15.6883 10.3421 15.2889 10.6032C14.8493 10.8906 14.2187 11 13.5 11H6.5C5.78976 11 5.15703 10.8788 4.71485 10.584C4.30845 10.313 4 9.85435 4 9C4 8.14565 4.30845 7.68696 4.71485 7.41603C5.15703 7.12124 5.78976 7 6.5 7C6.77614 7 7 6.77614 7 6.5ZM8 17C9.10457 17 10 16.1046 10 15C10 13.8954 9.10457 13 8 13C6.89543 13 6 13.8954 6 15C6 16.1046 6.89543 17 8 17ZM8 16C7.44772 16 7 15.5523 7 15C7 14.4477 7.44772 14 8 14C8.55228 14 9 14.4477 9 15C9 15.5523 8.55228 16 8 16ZM3.5 18C4.32843 18 5 17.3284 5 16.5C5 15.6716 4.32843 15 3.5 15C2.67157 15 2 15.6716 2 16.5C2 17.3284 2.67157 18 3.5 18ZM3.5 17C3.22386 17 3 16.7761 3 16.5C3 16.2239 3.22386 16 3.5 16C3.77614 16 4 16.2239 4 16.5C4 16.7761 3.77614 17 3.5 17Z" fill="#212121"/>
</svg>

<svg xmlns="http://www.w3.org/2000/svg" width="20" height="20"><path d="M10 2c-.962 0-1.72.242-2.305.642a3.54 3.54 0 0 0-1.21 1.46c-.33.706-.436 1.437-.47 1.915-.646.048-1.31.203-1.855.567C3.442 7.063 3 7.854 3 9s.442 1.937 1.16 2.416c.683.455 1.55.584 2.34.584h7c.781 0 1.65-.112 2.336-.56C16.562 10.966 17 10.17 17 9c0-1.146-.442-1.937-1.16-2.416-.546-.364-1.208-.519-1.856-.567-.033-.478-.139-1.209-.468-1.916a3.555 3.555 0 0 0-1.21-1.46C11.72 2.243 10.961 2 10 2ZM7 6.5c0-.243.003-1.146.39-1.976.19-.407.467-.782.868-1.056C8.658 3.195 9.212 3 10 3s1.343.195 1.742.468c.401.274.677.649.867 1.056.388.83.391 1.733.391 1.976a.5.5 0 0 0 .5.5c.71 0 1.343.121 1.785.416.406.271.715.73.715 1.584 0 .888-.312 1.342-.711 1.603-.44.288-1.07.397-1.789.397h-7c-.71 0-1.343-.121-1.785-.416C4.308 10.313 4 9.854 4 9c0-.854.308-1.313.715-1.584C5.157 7.121 5.79 7 6.5 7a.5.5 0 0 0 .5-.5ZM8 17a2 2 0 1 0 0-4 2 2 0 0 0 0 4Zm0-1a1 1 0 1 1 0-2 1 1 0 0 1 0 2Zm-4.5 2a1.5 1.5 0 1 0 0-3 1.5 1.5 0 0 0 0 3Zm0-1a.5.5 0 1 1 0-1 .5.5 0 0 1 0 1Z"/></svg>
